X:1
T:Title
%%score { ( 1 3 ) | 2 }
L:1/8
Q:1/4=86
M:2/4
K:G
V:1 treble nm="Grand Piano"
V:3 treble 
V:2 bass 
V:1
 [B,D][B,D] [B,D][B,D] | [CE][EG] [EG]2 | [DF][EG] [FA]B | [EG][CE] [B,D]2 | %4
w: R.~E.~Hudson * * *||||
 [B,D][B,D] [B,D][B,D] | [CE][EG] [EG]2 | FG AF | [B,DG]4 | [B,D][B,D] [B,D][B,D] | z .[EG]3 | %10
w: ||||||
 z .[FA]3 | z .[GB]3[K:bass] | [G,B,D][G,B,D] [G,B,D][G,B,D] | [G,CE][G,EG] [CEG]2 | %14
w: ||||
 [A,DF][B,DG] [CDA][CDF] | [B,DG]4 |] %16
w: ||
V:2
 [G,,G,][G,,G,] [G,,G,][G,,G,] | [C,G,][C,C] [C,C]2 | [D,A,][D,D] [D,D][G,D] | %3
 [C,C][C,G,] [G,,G,]2 | [G,,G,][G,,G,] [G,,G,][G,,G,] | [C,G,][C,C] [C,C]2 | %6
 [D,A,D][D,B,D] [D,CD][D,A,D] | G,,4 | [G,,G,][G,,G,] [G,,G,][G,,G,] | [C,G,][C,G,] C,C, | %10
 D,D, D,D, | G,G, G,G, | G,,G,, G,,G,, | C,C, C,2 | D,D, D,D, | G,,4 |] %16
V:3
 x4 | x4 | x4 | x4 | x4 | x4 | x4 | x4 | x4 | .[CE]2 G,C | [A,DF]D DD | [B,DG]D D[K:bass]B, | x4 | %13
 x4 | x4 | x4 |] %16

